;FLAVOR:Marlin
;TIME:8394
;Filament used: 7.39644m
;Layer height: 0.2
;MINX:79.703
;MINY:79.701
;MINZ:0.2
;MAXX:155.297
;MAXY:155.297
;MAXZ:63
;Generated with Cura_SteamEngine 5.0.0
M140 S65
M105
M190 S65
M104 S200
M105
M109 S200
M82 ;absolute extrusion mode
; Ender 3 Custom Start G-code
G92 E0 ; Reset Extruder
G28 ; Home all axes
G1 Z2.0 F3000 ; Move Z Axis up little to prevent scratching of Heat Bed
G1 X0.1 Y20 Z0.3 F5000.0 ; Move to start position
G1 X0.1 Y200.0 Z0.3 F1500.0 E15 ; Draw the first line
G1 X0.4 Y200.0 Z0.3 F5000.0 ; Move to side a little
G1 X0.4 Y20 Z0.3 F1500.0 E30 ; Draw the second line
G92 E0 ; Reset Extruder
G1 Z2.0 F3000 ; Move Z Axis up little to prevent scratching of Heat Bed
G1 X5 Y20 Z0.3 F5000.0 ; Move over to prevent blob squish
G92 E0
G92 E0
G1 F3000 E-5
;LAYER_COUNT:315
;LAYER:0
M107
G0 F6000 X91.078 Y90.468 Z0.2
G0 X84.33 Y99.372
;TYPE:SKIRT
G1 F3000 E0
G1 F1200 X84.833 Y98.483 E0.03397
G1 X85.493 Y97.391 E0.07641
G1 X86.035 Y96.554 E0.10958
G1 X86.594 Y95.737 E0.1425
G1 X87.182 Y94.924 E0.17587
G1 X87.772 Y94.155 E0.20811
G1 X88.398 Y93.378 E0.2413
G1 X89.04 Y92.624 E0.27424
G1 X89.695 Y91.893 E0.30688
G1 X90.384 Y91.164 E0.34024
G1 X91.078 Y90.468 E0.37293
G1 X91.793 Y89.788 E0.40575
G1 X92.533 Y89.119 E0.43893
G1 X93.284 Y88.476 E0.47182
G1 X94.049 Y87.855 E0.50459
G1 X94.835 Y87.25 E0.53758
G1 X95.636 Y86.666 E0.57055
G1 X96.439 Y86.113 E0.60298
G1 X97.31 Y85.545 E0.63756
G1 X98.399 Y84.882 E0.67997
G1 X99.27 Y84.387 E0.71329
G1 X100.132 Y83.927 E0.74579
G1 X101.021 Y83.482 E0.77885
G1 X101.921 Y83.06 E0.81191
G1 X102.816 Y82.669 E0.8444
G1 X103.745 Y82.291 E0.87776
G1 X104.668 Y81.945 E0.91054
G1 X105.607 Y81.62 E0.94359
G1 X106.563 Y81.318 E0.97694
G1 X107.662 Y81.004 E1.01495
G1 X108.779 Y80.721 E1.05328
G1 X109.733 Y80.507 E1.08579
G1 X110.714 Y80.314 E1.11905
G1 X111.727 Y80.144 E1.15321
G1 X112.991 Y79.971 E1.19564
G1 X113.979 Y79.865 E1.22869
G1 X114.97 Y79.785 E1.26176
G1 X115.953 Y79.733 E1.2945
G1 X116.936 Y79.705 E1.32721
G1 X117.722 Y79.701 E1.35335
G1 X118.925 Y79.727 E1.39338
G1 X119.906 Y79.777 E1.42605
G1 X120.901 Y79.854 E1.45924
G1 X121.877 Y79.955 E1.49187
G1 X122.859 Y80.082 E1.52481
G1 X123.838 Y80.236 E1.55777
G1 X124.803 Y80.413 E1.5904
G1 X125.789 Y80.62 E1.62391
G1 X126.748 Y80.849 E1.6567
G1 X127.698 Y81.102 E1.6894
G1 X128.648 Y81.382 E1.72234
G1 X129.585 Y81.685 E1.7551
G1 X130.545 Y82.023 E1.78895
G1 X131.764 Y82.493 E1.8324
G1 X132.669 Y82.878 E1.86511
G1 X133.563 Y83.284 E1.89777
G1 X134.482 Y83.73 E1.93174
G1 X135.626 Y84.329 E1.97469
G1 X136.517 Y84.833 E2.00874
G1 X137.609 Y85.493 E2.05118
G1 X138.446 Y86.035 E2.08435
G1 X139.263 Y86.594 E2.11727
G1 X140.076 Y87.182 E2.15064
G1 X140.845 Y87.772 E2.18288
G1 X141.622 Y88.398 E2.21607
G1 X142.376 Y89.04 E2.249
G1 X143.107 Y89.695 E2.28165
G1 X143.836 Y90.384 E2.31501
G1 X144.532 Y91.078 E2.3477
G1 X145.212 Y91.793 E2.38052
G1 X145.881 Y92.533 E2.4137
G1 X146.524 Y93.284 E2.44658
G1 X147.145 Y94.049 E2.47936
G1 X147.75 Y94.835 E2.51235
G1 X148.334 Y95.636 E2.54532
G1 X148.887 Y96.439 E2.57775
G1 X149.455 Y97.31 E2.61233
G1 X150.118 Y98.399 E2.65474
G1 X150.613 Y99.27 E2.68806
G1 X151.073 Y100.132 E2.72055
G1 X151.516 Y101.017 E2.75347
G1 X151.941 Y101.923 E2.78676
G1 X152.331 Y102.816 E2.81917
G1 X152.709 Y103.745 E2.85252
G1 X153.065 Y104.696 E2.8863
G1 X153.48 Y105.912 E2.92903
G1 X153.772 Y106.862 E2.96209
G1 X154.039 Y107.82 E2.99517
G1 X154.279 Y108.779 E3.02805
G1 X154.493 Y109.733 E3.06057
G1 X154.685 Y110.712 E3.09375
G1 X154.856 Y111.727 E3.12798
G1 X155.029 Y112.99 E3.17038
G1 X155.135 Y113.979 E3.20346
G1 X155.215 Y114.97 E3.23653
G1 X155.267 Y115.953 E3.26927
G1 X155.295 Y116.936 E3.30198
G1 X155.297 Y117.931 E3.33507
G1 X155.273 Y118.925 E3.36814
G1 X155.223 Y119.906 E3.40082
G1 X155.146 Y120.901 E3.43401
G1 X155.045 Y121.877 E3.46664
G1 X154.918 Y122.859 E3.49958
G1 X154.764 Y123.838 E3.53254
G1 X154.587 Y124.803 E3.56517
G1 X154.38 Y125.789 E3.59868
G1 X154.151 Y126.748 E3.63147
G1 X153.898 Y127.698 E3.66417
G1 X153.618 Y128.648 E3.69711
G1 X153.315 Y129.585 E3.72987
G1 X152.977 Y130.545 E3.76372
G1 X152.507 Y131.764 E3.80717
G1 X152.122 Y132.669 E3.83988
G1 X151.716 Y133.563 E3.87254
G1 X151.271 Y134.479 E3.90641
G1 X150.67 Y135.628 E3.94954
G1 X150.167 Y136.517 E3.98351
G1 X149.507 Y137.609 E4.02595
G1 X148.965 Y138.446 E4.05912
G1 X148.406 Y139.263 E4.09204
G1 X147.818 Y140.076 E4.12541
G1 X147.228 Y140.845 E4.15765
G1 X146.602 Y141.622 E4.19084
G1 X145.96 Y142.376 E4.22377
G1 X145.305 Y143.107 E4.25642
G1 X144.616 Y143.836 E4.28978
G1 X143.922 Y144.532 E4.32247
G1 X143.207 Y145.212 E4.35529
G1 X142.467 Y145.881 E4.38847
G1 X141.716 Y146.524 E4.42135
G1 X140.951 Y147.145 E4.45413
G1 X140.165 Y147.75 E4.48712
G1 X139.364 Y148.334 E4.52009
G1 X138.561 Y148.887 E4.55251
G1 X137.69 Y149.455 E4.5871
G1 X136.601 Y150.118 E4.6295
G1 X135.73 Y150.613 E4.66283
G1 X134.868 Y151.073 E4.69532
G1 X133.979 Y151.518 E4.72839
G1 X133.079 Y151.94 E4.76145
G1 X132.184 Y152.331 E4.79393
G1 X131.255 Y152.709 E4.82729
G1 X130.302 Y153.066 E4.86114
G1 X129.09 Y153.479 E4.90373
G1 X128.135 Y153.773 E4.93696
G1 X127.181 Y154.039 E4.9699
G1 X126.221 Y154.279 E5.00282
G1 X125.267 Y154.493 E5.03533
G1 X124.286 Y154.686 E5.06859
G1 X123.273 Y154.856 E5.10275
G1 X122.009 Y155.029 E5.14518
G1 X121.021 Y155.135 E5.17823
G1 X120.03 Y155.215 E5.2113
G1 X119.047 Y155.267 E5.24404
G1 X118.064 Y155.295 E5.27675
G1 X117.069 Y155.297 E5.30984
G1 X116.075 Y155.273 E5.34291
G1 X115.094 Y155.223 E5.37559
G1 X114.099 Y155.146 E5.40878
G1 X113.123 Y155.045 E5.44141
G1 X112.141 Y154.918 E5.47435
G1 X111.162 Y154.764 E5.50731
G1 X110.197 Y154.587 E5.53994
G1 X109.211 Y154.38 E5.57345
G1 X108.252 Y154.151 E5.60624
G1 X107.302 Y153.898 E5.63894
G1 X106.321 Y153.608 E5.67297
G1 X105.096 Y153.206 E5.71585
G1 X104.181 Y152.875 E5.74821
G1 X103.234 Y152.505 E5.78203
G1 X102.331 Y152.122 E5.81465
G1 X101.437 Y151.716 E5.84731
G1 X100.518 Y151.27 E5.88128
G1 X99.374 Y150.671 E5.92423
G1 X98.483 Y150.167 E5.95828
G1 X97.391 Y149.507 E6.00072
G1 X96.551 Y148.964 E6.03399
G1 X95.738 Y148.407 E6.06676
G1 X94.924 Y147.818 E6.10018
G1 X94.155 Y147.228 E6.13242
G1 X93.378 Y146.602 E6.16561
G1 X92.624 Y145.96 E6.19854
G1 X91.893 Y145.304 E6.23121
G1 X91.163 Y144.615 E6.2646
G1 X90.469 Y143.922 E6.29722
G1 X89.787 Y143.206 E6.33011
G1 X89.119 Y142.467 E6.36324
G1 X88.476 Y141.716 E6.39612
G1 X87.857 Y140.953 E6.4288
G1 X87.248 Y140.163 E6.46198
G1 X86.667 Y139.366 E6.49478
G1 X86.11 Y138.558 E6.52742
G1 X85.545 Y137.69 E6.56187
G1 X84.882 Y136.601 E6.60427
G1 X84.389 Y135.733 E6.63748
G1 X83.924 Y134.863 E6.67029
G1 X83.482 Y133.979 E6.70316
G1 X83.06 Y133.079 E6.73622
G1 X82.669 Y132.184 E6.7687
G1 X82.291 Y131.255 E6.80206
G1 X81.945 Y130.332 E6.83485
G1 X81.62 Y129.393 E6.8679
G1 X81.323 Y128.456 E6.90059
G1 X81.048 Y127.504 E6.93355
G1 X80.797 Y126.537 E6.96678
G1 X80.577 Y125.59 E6.99911
G1 X80.376 Y124.614 E7.03226
G1 X80.196 Y123.599 E7.06654
G1 X80.009 Y122.318 E7.1096
G1 X79.878 Y121.159 E7.14839
G1 X79.785 Y120.03 E7.18607
G1 X79.733 Y119.047 E7.21881
G1 X79.705 Y118.064 E7.25152
G1 X79.703 Y117.069 E7.28461
G1 X79.727 Y116.075 E7.31768
G1 X79.777 Y115.094 E7.35035
G1 X79.854 Y114.099 E7.38355
G1 X79.955 Y113.123 E7.41618
G1 X80.082 Y112.141 E7.44912
G1 X80.236 Y111.162 E7.48208
G1 X80.413 Y110.197 E7.51471
G1 X80.62 Y109.211 E7.54822
G1 X80.849 Y108.252 E7.58101
G1 X81.102 Y107.302 E7.61371
G1 X81.382 Y106.352 E7.64665
G1 X81.685 Y105.415 E7.67941
G1 X82.023 Y104.455 E7.71326
G1 X82.493 Y103.236 E7.75671
G1 X82.878 Y102.331 E7.78942
G1 X83.284 Y101.437 E7.82208
G1 X83.729 Y100.521 E7.85595
G1 X84.33 Y99.372 E7.89908
G1 F3000 E2.89908
G0 F6000 X80.629 Y111.233
G1 F3000 E7.89908
G1 F1200 X80.804 Y110.278 E7.93137
G1 X81.009 Y109.303 E7.96451
G1 X81.236 Y108.354 E7.99696
G1 X81.486 Y107.414 E8.02931
G1 X81.763 Y106.474 E8.06191
G1 X82.062 Y105.546 E8.09433
G1 X82.396 Y104.598 E8.12776
G1 X82.862 Y103.391 E8.1708
G1 X83.243 Y102.495 E8.20318
G1 X83.644 Y101.611 E8.23547
G1 X84.084 Y100.705 E8.26897
G1 X84.679 Y99.568 E8.31165
G1 X85.176 Y98.689 E8.34523
G1 X85.83 Y97.607 E8.38728
G1 X86.365 Y96.779 E8.42007
G1 X86.918 Y95.971 E8.45264
G1 X87.5 Y95.167 E8.48565
G1 X88.084 Y94.405 E8.51758
G1 X88.703 Y93.636 E8.55041
G1 X89.338 Y92.891 E8.58297
G1 X89.987 Y92.167 E8.61531
G1 X90.668 Y91.446 E8.6483
G1 X91.355 Y90.757 E8.68066
G1 X92.062 Y90.084 E8.71313
G1 X92.794 Y89.422 E8.74595
G1 X93.537 Y88.786 E8.77848
G1 X94.294 Y88.172 E8.8109
G1 X95.071 Y87.573 E8.84353
G1 X95.864 Y86.995 E8.87617
G1 X96.658 Y86.447 E8.90826
G1 X97.519 Y85.886 E8.94244
G1 X98.597 Y85.229 E8.98442
G1 X99.459 Y84.739 E9.0174
G1 X100.312 Y84.284 E9.04956
G1 X101.191 Y83.844 E9.08225
G1 X102.082 Y83.426 E9.11499
G1 X102.968 Y83.039 E9.14714
G1 X103.886 Y82.666 E9.1801
G1 X104.8 Y82.322 E9.21258
G1 X105.729 Y82.001 E9.24527
G1 X106.675 Y81.702 E9.27827
G1 X107.761 Y81.391 E9.31584
G1 X108.867 Y81.111 E9.35379
G1 X109.812 Y80.9 E9.38599
G1 X110.781 Y80.709 E9.41884
G1 X111.782 Y80.54 E9.45261
G1 X113.035 Y80.368 E9.49467
G1 X114.012 Y80.263 E9.52736
G1 X114.993 Y80.185 E9.56009
G1 X115.966 Y80.132 E9.5925
G1 X116.938 Y80.105 E9.62484
G1 X117.724 Y80.101 E9.65098
G1 X118.905 Y80.127 E9.69027
G1 X119.877 Y80.176 E9.72264
G1 X120.861 Y80.252 E9.75547
G1 X121.827 Y80.352 E9.78777
G1 X122.798 Y80.478 E9.82033
G1 X123.767 Y80.629 E9.85295
G1 X124.722 Y80.804 E9.88524
G1 X125.697 Y81.009 E9.91838
G1 X126.646 Y81.236 E9.95084
G1 X127.586 Y81.486 E9.98319
G1 X128.526 Y81.763 E10.01578
G1 X129.454 Y82.062 E10.04821
G1 X130.402 Y82.396 E10.08164
G1 X131.609 Y82.862 E10.12467
G1 X132.505 Y83.243 E10.15706
G1 X133.389 Y83.644 E10.18934
G1 X134.297 Y84.085 E10.22291
G1 X135.43 Y84.678 E10.26545
G1 X136.311 Y85.176 E10.29911
G1 X137.393 Y85.83 E10.34116
G1 X138.221 Y86.365 E10.37395
G1 X139.029 Y86.918 E10.40651
G1 X139.833 Y87.5 E10.43952
G1 X140.595 Y88.084 E10.47146
G1 X141.364 Y88.703 E10.50429
G1 X142.109 Y89.338 E10.53685
G1 X142.833 Y89.987 E10.56919
G1 X143.554 Y90.668 E10.60217
G1 X144.243 Y91.355 E10.63453
G1 X144.916 Y92.062 E10.667
G1 X145.578 Y92.794 E10.69983
G1 X146.214 Y93.537 E10.73235
G1 X146.828 Y94.294 E10.76477
G1 X147.427 Y95.071 E10.7974
G1 X148.005 Y95.864 E10.83004
G1 X148.553 Y96.658 E10.86213
G1 X149.114 Y97.519 E10.89631
G1 X149.771 Y98.597 E10.9383
G1 X150.261 Y99.459 E10.97128
G1 X150.716 Y100.312 E11.00343
G1 X151.155 Y101.188 E11.03602
G1 X151.575 Y102.084 E11.06893
G1 X151.961 Y102.968 E11.10102
G1 X152.334 Y103.886 E11.13397
G1 X152.687 Y104.826 E11.16737
G1 X153.098 Y106.031 E11.20972
G1 X153.387 Y106.971 E11.24242
G1 X153.651 Y107.918 E11.27512
G1 X153.889 Y108.867 E11.30766
G1 X154.1 Y109.812 E11.33987
G1 X154.291 Y110.78 E11.37269
G1 X154.46 Y111.782 E11.40648
G1 X154.632 Y113.034 E11.44852
G1 X154.737 Y114.012 E11.48123
G1 X154.815 Y114.992 E11.51393
G1 X154.868 Y115.965 E11.54634
G1 X154.895 Y116.938 E11.57871
G1 X154.897 Y117.922 E11.61144
G1 X154.873 Y118.905 E11.64415
G1 X154.824 Y119.877 E11.67652
G1 X154.748 Y120.861 E11.70934
G1 X154.648 Y121.827 E11.74164
G1 X154.522 Y122.798 E11.77421
G1 X154.371 Y123.767 E11.80683
G1 X154.196 Y124.722 E11.83912
G1 X153.991 Y125.697 E11.87226
G1 X153.764 Y126.646 E11.90471
G1 X153.514 Y127.586 E11.93706
G1 X153.237 Y128.526 E11.96966
G1 X152.938 Y129.454 E12.00208
G1 X152.604 Y130.402 E12.03551
G1 X152.138 Y131.609 E12.07855
G1 X151.757 Y132.505 E12.11093
G1 X151.356 Y133.389 E12.14322
G1 X150.916 Y134.295 E12.17672
G1 X150.321 Y135.432 E12.2194
G1 X149.824 Y136.311 E12.25298
G1 X149.17 Y137.393 E12.29503
G1 X148.635 Y138.221 E12.32782
G1 X148.082 Y139.029 E12.36039
G1 X147.5 Y139.833 E12.3934
G1 X146.916 Y140.595 E12.42533
G1 X146.297 Y141.364 E12.45816
G1 X145.662 Y142.109 E12.49072
G1 X145.013 Y142.833 E12.52306
G1 X144.332 Y143.554 E12.55605
G1 X143.645 Y144.243 E12.58841
G1 X142.938 Y144.916 E12.62088
G1 X142.206 Y145.578 E12.6537
G1 X141.463 Y146.214 E12.68623
G1 X140.706 Y146.828 E12.71865
G1 X139.929 Y147.427 E12.75128
G1 X139.136 Y148.005 E12.78392
G1 X138.342 Y148.553 E12.81601
G1 X137.481 Y149.114 E12.85019
G1 X136.403 Y149.771 E12.89217
G1 X135.541 Y150.261 E12.92515
G1 X134.688 Y150.716 E12.95731
G1 X133.809 Y151.156 E12.99
G1 X132.918 Y151.574 E13.02274
G1 X132.032 Y151.961 E13.05489
G1 X131.114 Y152.334 E13.08785
G1 X130.171 Y152.687 E13.12134
G1 X128.971 Y153.097 E13.16352
G1 X128.027 Y153.388 E13.19637
G1 X127.083 Y153.651 E13.22897
G1 X126.133 Y153.889 E13.26154
G1 X125.188 Y154.1 E13.29374
G1 X124.219 Y154.291 E13.32659
G1 X123.218 Y154.46 E13.36036
G1 X121.965 Y154.632 E13.40242
G1 X120.988 Y154.737 E13.43511
G1 X120.007 Y154.815 E13.46784
G1 X119.034 Y154.868 E13.50025
G1 X118.062 Y154.895 E13.53259
G1 X117.078 Y154.897 E13.56532
G1 X116.095 Y154.873 E13.59802
G1 X115.123 Y154.824 E13.63039
G1 X114.139 Y154.748 E13.66322
G1 X113.173 Y154.648 E13.69552
G1 X112.202 Y154.522 E13.72808
G1 X111.233 Y154.371 E13.7607
G1 X110.278 Y154.196 E13.79299
G1 X109.303 Y153.991 E13.82613
G1 X108.354 Y153.764 E13.85859
G1 X107.414 Y153.514 E13.89094
G1 X106.444 Y153.227 E13.92458
G1 X105.231 Y152.83 E13.96703
G1 X104.326 Y152.502 E13.99905
G1 X103.389 Y152.137 E14.03249
G1 X102.495 Y151.757 E14.0648
G1 X101.611 Y151.356 E14.09709
G1 X100.703 Y150.915 E14.13066
G1 X99.57 Y150.322 E14.1732
G1 X98.689 Y149.824 E14.20686
G1 X97.607 Y149.17 E14.24891
G1 X96.777 Y148.633 E14.28179
G1 X95.971 Y148.082 E14.31426
G1 X95.167 Y147.5 E14.34727
G1 X94.405 Y146.916 E14.3792
G1 X93.636 Y146.297 E14.41204
G1 X92.891 Y145.662 E14.4446
G1 X92.167 Y145.013 E14.47693
G1 X91.445 Y144.331 E14.50997
G1 X90.758 Y143.645 E14.54226
G1 X90.083 Y142.937 E14.57479
G1 X89.422 Y142.206 E14.60757
G1 X88.786 Y141.463 E14.6401
G1 X88.173 Y140.708 E14.67245
G1 X87.571 Y139.926 E14.70527
G1 X86.996 Y139.138 E14.73772
G1 X86.444 Y138.338 E14.77004
G1 X85.886 Y137.481 E14.80406
G1 X85.229 Y136.403 E14.84605
G1 X84.741 Y135.544 E14.87891
G1 X84.282 Y134.683 E14.91136
G1 X83.844 Y133.809 E14.94387
G1 X83.426 Y132.918 E14.97661
G1 X83.039 Y132.032 E15.00876
G1 X82.666 Y131.114 E15.04172
G1 X82.322 Y130.2 E15.0742
G1 X82.001 Y129.271 E15.10689
G1 X81.707 Y128.344 E15.13924
G1 X81.435 Y127.403 E15.17182
G1 X81.186 Y126.446 E15.20471
G1 X80.969 Y125.509 E15.2367
G1 X80.769 Y124.543 E15.26951
G1 X80.592 Y123.54 E15.30338
G1 X80.407 Y122.272 E15.346
G1 X80.277 Y121.125 E15.3844
G1 X80.185 Y120.007 E15.42171
G1 X80.132 Y119.034 E15.45412
G1 X80.105 Y118.062 E15.48646
G1 X80.103 Y117.078 E15.51919
G1 X80.127 Y116.095 E15.55189
G1 X80.176 Y115.123 E15.58426
G1 X80.252 Y114.139 E15.61709
G1 X80.352 Y113.173 E15.64939
G1 X80.478 Y112.202 E15.68195
G1 X80.629 Y111.233 E15.71457
G1 F3000 E10.71457
G0 F6000 X80.503 Y117.086
G1 F3000 E15.71457
G1 F1200 X80.526 Y116.114 E15.74691
G1 X80.575 Y115.153 E15.77891
G1 X80.65 Y114.18 E15.81137
G1 X80.749 Y113.224 E15.84334
G1 X80.873 Y112.263 E15.87557
G1 X81.023 Y111.304 E15.90785
G1 X81.196 Y110.359 E15.93981
G1 X81.398 Y109.395 E15.97256
G1 X81.623 Y108.456 E16.00468
G1 X81.871 Y107.526 E16.03669
G1 X82.144 Y106.596 E16.06893
G1 X82.44 Y105.678 E16.10101
G1 X82.77 Y104.741 E16.13405
G1 X83.231 Y103.547 E16.17662
G1 X83.607 Y102.66 E16.20866
G1 X84.004 Y101.784 E16.24065
G1 X84.439 Y100.89 E16.27372
G1 X85.027 Y99.764 E16.31597
G1 X85.519 Y98.895 E16.34918
G1 X86.166 Y97.824 E16.3908
G1 X86.696 Y97.004 E16.42328
G1 X87.243 Y96.204 E16.45551
G1 X87.818 Y95.409 E16.48814
G1 X88.397 Y94.655 E16.51976
G1 X89.009 Y93.895 E16.55222
G1 X89.636 Y93.157 E16.58442
G1 X90.279 Y92.441 E16.61643
G1 X90.951 Y91.728 E16.64902
G1 X91.632 Y91.046 E16.68107
G1 X92.331 Y90.38 E16.71319
G1 X93.055 Y89.725 E16.74566
G1 X93.79 Y89.096 E16.77784
G1 X94.539 Y88.488 E16.80992
G1 X95.308 Y87.895 E16.84222
G1 X96.092 Y87.324 E16.87448
G1 X96.878 Y86.781 E16.90625
G1 X97.728 Y86.227 E16.94
G1 X98.796 Y85.577 E16.98158
G1 X99.648 Y85.092 E17.01419
G1 X100.493 Y84.642 E17.04603
G1 X101.362 Y84.205 E17.07838
G1 X102.243 Y83.793 E17.11073
G1 X103.12 Y83.409 E17.14257
G1 X104.028 Y83.04 E17.17517
